src/assets/5.svg

<svg xmlns="http://www.w3.org/2000/svg" width="512" height="512"><path fill="white" d="M185.255 512c-76.201-.439-139.233-155.991-139.233-235.21 0-129.404 97.075-157.734 134.487-157.734 16.86 0 34.863 6.621 50.742 12.48 11.104 4.087 22.588 8.306 28.975 8.306 3.823 0 12.832-3.589 20.786-6.738 16.963-6.753 38.071-15.146 62.651-15.146h.146c18.354 0 74.004 4.028 107.461 54.272l7.837 11.777-11.279 8.511c-16.113 12.158-45.513 34.336-45.513 78.267 0 52.031 33.296 72.041 49.292 81.665 7.061 4.248 14.37 8.628 14.37 18.208 0 6.255-49.922 140.566-122.417 140.566-17.739 0-30.278-5.332-41.338-10.034-11.191-4.761-20.845-8.862-36.797-8.862-8.086 0-18.311 3.823-29.136 7.881C221.496 505.73 204.752 512 185.753 512h-.498zM351.343 0c1.888 68.076-46.797 115.304-95.425 112.342C247.905 58.015 304.54 0 351.343 0z"/></svg>

<svg width="512" height="512" viewBox="0 0 512 512" fill="none" xmlns="http://www.w3.org/2000/svg">
<path d="M185.255 512C109.054 511.561 46.022 356.009 46.022 276.79C46.022 147.386 143.097 119.056 180.509 119.056C197.369 119.056 215.372 125.677 231.251 131.536C242.355 135.623 253.839 139.842 260.226 139.842C264.049 139.842 273.058 136.253 281.012 133.104C297.975 126.351 319.083 117.958 343.663 117.958H343.809C362.163 117.958 417.813 121.986 451.27 172.23L459.107 184.007L447.828 192.518C431.715 204.676 402.315 226.854 402.315 270.785C402.315 322.816 435.611 342.826 451.607 352.45C458.668 356.698 465.977 361.078 465.977 370.658C465.977 376.913 416.055 511.224 343.56 511.224C325.821 511.224 313.282 505.892 302.222 501.19C291.031 496.429 281.377 492.328 265.425 492.328C257.339 492.328 247.114 496.151 236.289 500.209C221.496 505.73 204.752 512 185.753 512H185.255ZM351.343 0C353.231 68.076 304.546 115.304 255.918 112.342C247.905 58.015 304.54 0 351.343 0Z" fill="white"/>
</svg>
